Newaita-dark/actions/16/view-sort-ascending.svg

<?xml version="1.0" encoding="UTF-8"?>
<svg xmlns="http://www.w3.org/2000/svg" xmlns:xlink="http://www.w3.org/1999/xlink" width="16pt" height="16pt" viewBox="0 0 16 16" version="1.1">
<g id="surface1">
<path style=" stroke:none;fill-rule:nonzero;fill:rgb(74.117649%,74.117649%,74.117649%);fill-opacity:1;" d="M 2.316406 12.527344 C 2.863281 12.527344 3.308594 12.972656 3.308594 13.519531 C 3.308594 14.070312 2.863281 14.511719 2.316406 14.511719 C 1.765625 14.511719 1.324219 14.070312 1.324219 13.519531 C 1.324219 12.972656 1.765625 12.527344 2.316406 12.527344 Z M 2.316406 12.527344 "/>
<path style=" stroke:none;fill-rule:nonzero;fill:rgb(74.117649%,74.117649%,74.117649%);fill-opacity:1;" d="M 5.125 13.023438 L 14.058594 13.023438 C 14.332031 13.023438 14.554688 13.246094 14.554688 13.519531 C 14.554688 13.792969 14.332031 14.015625 14.058594 14.015625 L 5.125 14.015625 C 4.851562 14.015625 4.628906 13.792969 4.628906 13.519531 C 4.628906 13.246094 4.851562 13.023438 5.125 13.023438 Z M 5.125 13.023438 "/>
<path style=" stroke:none;fill-rule:nonzero;fill:rgb(74.117649%,74.117649%,74.117649%);fill-opacity:1;" d="M 5.125 9.386719 L 14.058594 9.386719 C 14.332031 9.386719 14.554688 9.609375 14.554688 9.882812 C 14.554688 10.15625 14.332031 10.378906 14.058594 10.378906 L 5.125 10.378906 C 4.851562 10.378906 4.628906 10.15625 4.628906 9.882812 C 4.628906 9.609375 4.851562 9.386719 5.125 9.386719 Z M 5.125 9.386719 "/>
<path style=" stroke:none;fill-rule:nonzero;fill:rgb(74.117649%,74.117649%,74.117649%);fill-opacity:1;" d="M 5.125 5.746094 L 14.058594 5.746094 C 14.332031 5.746094 14.554688 5.96875 14.554688 6.242188 C 14.554688 6.519531 14.332031 6.738281 14.058594 6.738281 L 5.125 6.738281 C 4.851562 6.738281 4.628906 6.519531 4.628906 6.242188 C 4.628906 5.96875 4.851562 5.746094 5.125 5.746094 Z M 5.125 5.746094 "/>
<path style=" stroke:none;fill-rule:nonzero;fill:rgb(74.117649%,74.117649%,74.117649%);fill-opacity:1;" d="M 5.125 2.109375 L 14.058594 2.109375 C 14.332031 2.109375 14.554688 2.332031 14.554688 2.605469 C 14.554688 2.878906 14.332031 3.101562 14.058594 3.101562 L 5.125 3.101562 C 4.851562 3.101562 4.628906 2.878906 4.628906 2.605469 C 4.628906 2.332031 4.851562 2.109375 5.125 2.109375 Z M 5.125 2.109375 "/>
<path style=" stroke:none;fill-rule:nonzero;fill:rgb(14.901961%,65.098041%,60.392159%);fill-opacity:1;" d="M 2.316406 8.890625 C 2.863281 8.890625 3.308594 9.335938 3.308594 9.882812 C 3.308594 10.429688 2.863281 10.875 2.316406 10.875 C 1.765625 10.875 1.324219 10.429688 1.324219 9.882812 C 1.324219 9.335938 1.765625 8.890625 2.316406 8.890625 Z M 2.316406 8.890625 "/>
<path style=" stroke:none;fill-rule:nonzero;fill:rgb(14.901961%,65.098041%,60.392159%);fill-opacity:1;" d="M 2.316406 5.25 C 2.863281 5.25 3.308594 5.695312 3.308594 6.242188 C 3.308594 6.792969 2.863281 7.238281 2.316406 7.238281 C 1.765625 7.238281 1.324219 6.792969 1.324219 6.242188 C 1.324219 5.695312 1.765625 5.25 2.316406 5.25 Z M 2.316406 5.25 "/>
<path style=" stroke:none;fill-rule:nonzero;fill:rgb(14.901961%,65.098041%,60.392159%);fill-opacity:1;" d="M 2.316406 1.613281 C 2.863281 1.613281 3.308594 2.058594 3.308594 2.605469 C 3.308594 3.152344 2.863281 3.597656 2.316406 3.597656 C 1.765625 3.597656 1.324219 3.152344 1.324219 2.605469 C 1.324219 2.058594 1.765625 1.613281 2.316406 1.613281 Z M 2.316406 1.613281 "/>
</g>
</svg>

<svg xmlns="http://www.w3.org/2000/svg" width="16pt" height="16pt" viewBox="0 0 16 16"><path d="M2.316 12.527c.547 0 .993.446.993.993 0 .55-.446.992-.993.992a.989.989 0 0 1-.992-.992c0-.547.442-.993.992-.993zm0 0M5.125 13.023h8.934a.497.497 0 0 1 0 .993H5.125a.497.497 0 0 1 0-.993zm0 0M5.125 9.387h8.934a.497.497 0 0 1 0 .992H5.125a.497.497 0 0 1 0-.992zm0 0M5.125 5.746h8.934a.497.497 0 0 1 0 .992H5.125a.497.497 0 0 1 0-.992zm0 0M5.125 2.11h8.934a.497.497 0 0 1 0 .992H5.125a.497.497 0 0 1 0-.993zm0 0" fill="#bdbdbd"/><path d="M2.316 8.89a.994.994 0 0 1 0 1.984.991.991 0 1 1 0-1.983zm0 0M2.316 5.25a.994.994 0 0 1 0 1.988.992.992 0 0 1-.992-.996c0-.547.442-.992.992-.992zm0 0M2.316 1.613c.547 0 .993.446.993.992a.991.991 0 1 1-.992-.992zm0 0" fill="#26a69a"/></svg>
